X:1
T:Soledad, 87.87 D
T:Soledad, 87.87 D
T:H. Wilhelm, 1881
T:Public Domain Courtesy of the Cyber Hymnal™
C:H. Wilhelm, 1881
Z:Public Domain
Z:Courtesy of the Cyber Hymnal™
%%score ( 1 2 ) ( 3 4 )
L:1/8
Q:1/4=110
M:4/4
K:Bb
V:1 treble 
V:2 treble 
V:3 bass 
V:4 bass 
V:1
 [DF]2 [DF]2 [DF]3 [B,D] | [EG]2 [EG]2 [EG]2 [DF]2 | [FB]2 [FB]2 [FA]3 [FA] | [GB]2 [=EG]2 F4 | %4
 [DF]2 [DF]2 [DF]3 [B,D] | [EG]2 [EG]2 [EG]2 [DF]2 | [DB]2 [DB]2 [Gc]3 [Gc] | [FA]2 [EA]2 [DB]4 | %8
 [Fd]2 [Fd]2 [Ge]3 [Fd] | [Ec]2 [DB]2 [EG]2 [DF]2 | [B,D]2 [CE]2 [DF]3 [FB] | [EA]2 [DB]2 [Fc]4 | %12
 [Fd]2 [Fd]2 [Ge]3 [Fd] | [Ec]2 [DB]2 [EG]2 [DF]2 | [DB]2 [DB]2 [Gc]3 [Gc] | [FA]2 [EA]2 [DB]4 |] %16
V:2
 x8 | x8 | x8 | x4 F4 | x8 | x8 | x8 | x8 | x8 | x8 | x8 | x8 | x8 | x8 | x8 | x8 |] %16
V:3
 [B,,F,]2 [B,,F,]2 [B,,F,]3 [B,,F,] | [B,,E,]2 [B,,G,]2 [B,,B,]2 [B,,B,]2 | %2
 [D,B,]2 [B,,D]2 [C,C]3 [C,C] | [C,C]2 [C,B,]2 [F,A,]4 | [B,,B,]2 [B,,B,]2 [B,,F,]3 [B,,F,] | %5
 [B,,E,]2 [B,,G,]2 [B,,B,]2 [B,,B,]2 | [G,B,]2 [G,B,]2 [E,E]3 [E,E] | [F,C]2 [F,C]2 [B,,B,]4 | %8
 B,2 B,2 B,3 B, | [F,A,]2 [G,B,]2 [E,B,]2 [B,,B,]2 | [B,,F,]2 [B,,F,]2 [B,,B,]3 [D,B,] | %11
 [C,F,]2 [B,,B,]2 [F,A,]4 | B,2 B,2 B,3 B, | [F,A,]2 [G,B,]2 [E,B,]2 [B,,B,]2 | %14
 [G,B,]2 [G,B,]2 [E,E]3 [E,E] | [F,C]2 [F,C]2 [B,,B,]4 |] %16
V:4
 x8 | x8 | x8 | x8 | x8 | x8 | x8 | x8 | B,2 B,2 B,3 B, | x8 | x8 | x8 | B,2 B,2 B,3 B, | x8 | x8 | %15
 x8 |] %16

